assets/jira/mono.svg

<svg viewBox="0 0 24 24" xmlns="http://www.w3.org/2000/svg"><path d="m11.571 11.513h-11.571a5.218 5.218 0 0 0 5.232 5.215h2.13v2.057a5.215 5.215 0 0 0 5.213 5.215v-11.482a1.005 1.005 0 0 0 -1.005-1.005zm5.723-5.756h-11.558a5.215 5.215 0 0 0 5.215 5.214h2.129v2.058a5.218 5.218 0 0 0 5.215 5.214v-11.485a1.001 1.001 0 0 0 -1.001-1.001zm5.719-5.757h-11.558a5.215 5.215 0 0 0 5.215 5.215h2.129v2.057a5.215 5.215 0 0 0 5.201 5.211v-11.478a1.001 1.001 0 0 0 -.987-1.005z"/></svg>

<svg xmlns="http://www.w3.org/2000/svg" viewBox="0 0 24 24"><path d="M11.571 11.513H0a5.22 5.22 0 0 0 5.232 5.215h2.13v2.057A5.215 5.215 0 0 0 12.575 24V12.518a1.005 1.005 0 0 0-1.005-1.005zm5.723-5.756H5.736a5.215 5.215 0 0 0 5.215 5.214h2.129v2.058a5.22 5.22 0 0 0 5.215 5.214V6.758a1 1 0 0 0-1.001-1.001M23.013 0H11.455a5.215 5.215 0 0 0 5.215 5.215h2.129v2.057A5.215 5.215 0 0 0 24 12.483V1.005A1 1 0 0 0 23.013 0"/></svg>
